logos/stigg-icon.svg

<?xml version="1.0" encoding="UTF-8"?>
<svg width="256px" height="252px" viewBox="0 0 256 252" version="1.1" xmlns="http://www.w3.org/2000/svg" preserveAspectRatio="xMidYMid">
    <title>stigg</title>
    <defs>
        <radialGradient cx="-100.1136%" cy="-37.2%" fx="-100.1136%" fy="-37.2%" r="279.1152%" gradientTransform="translate(-1.001136,-0.372000),scale(1.000000,0.667824),translate(1.001136,0.372000)" id="stiggRadialGradient-1">
            <stop stop-color="#FFBE6E" offset="0%"></stop>
            <stop stop-color="#FA9B68" offset="31.3%"></stop>
            <stop stop-color="#F0465A" offset="100%"></stop>
        </radialGradient>
        <radialGradient cx="98.1828%" cy="107.6%" fx="98.1828%" fy="107.6%" r="331.87906%" gradientTransform="translate(0.981828,1.076000),scale(0.645755,1.000000),translate(-0.981828,-1.076000)" id="stiggRadialGradient-2">
            <stop stop-color="#FFBE6E" offset="0%"></stop>
            <stop stop-color="#FBAB69" offset="28.2%"></stop>
            <stop stop-color="#F27B5D" offset="84.8%"></stop>
            <stop stop-color="#F06E5A" offset="100%"></stop>
        </radialGradient>
        <linearGradient x1="-4.9%" y1="-41.5%" x2="77.9%" y2="102%" id="linearGradient-3">
            <stop stop-color="#003EE2" offset="0%"></stop>
            <stop stop-color="#1458E6" offset="10.8%"></stop>
            <stop stop-color="#2C77EC" offset="25.9%"></stop>
            <stop stop-color="#3F8EF0" offset="41.8%"></stop>
            <stop stop-color="#4C9FF3" offset="58.7%"></stop>
            <stop stop-color="#54A9F5" offset="77.1%"></stop>
            <stop stop-color="#57ADF6" offset="100%"></stop>
        </linearGradient>
        <linearGradient x1="125.2%" y1="50%" x2="-45.7%" y2="50%" id="linearGradient-4">
            <stop stop-color="#003EE2" offset="0%"></stop>
            <stop stop-color="#1E64E8" offset="26.8%"></stop>
            <stop stop-color="#3C8BF0" offset="58.8%"></stop>
            <stop stop-color="#4FA4F4" offset="84.4%"></stop>
            <stop stop-color="#57ADF6" offset="100%"></stop>
        </linearGradient>
    </defs>
    <g>
        <path d="M213.917245,16.5112263 C197.167754,34.767653 185.418465,48.1909891 178.669377,56.7812348 C172.185784,65.033558 164.086052,76.8740751 154.37018,92.3027862 L168.996166,162.600321 C174.724058,163.309347 196.784956,168.196837 203.039977,168.497524 C245.640944,170.561495 253.630136,155.506347 254.899701,154.942096 C255.140993,153.572302 259.851748,127.575912 247.731484,86.7270932 C240.331481,61.6471611 228.911728,37.9338428 213.917245,16.5112263 Z" fill="url(#stiggRadialGradient-1)"></path>
        <path d="M154.355332,92.3027862 L213.902396,16.5112263 C189.540266,7.01249638 163.798508,1.52891152 137.680223,0.274155074 C95.1238025,-1.83436263 70.9797899,8.89383485 69.7102247,9.45437389 C69.4615087,10.8204558 61.9984021,37.5937062 74.0852571,78.4982073 C75.8099167,84.2610445 80.4702787,89.1029887 82.5951982,94.7305513 L154.355332,92.3027862 Z" fill="url(#stiggRadialGradient-2)"></path>
        <path d="M69.7436343,9.45808607 L1.12029216,96.1189062 C0.867863982,97.481276 -3.86145214,123.39971 8.22540288,164.304211 C13.5632143,182.18659 20.8558996,199.426109 29.9713478,215.710467 L95.7363121,123.834035 C87.9326575,109.097671 81.605993,93.6254449 76.848745,77.6433911 C64.76189,36.73889 69.4912061,10.824168 69.7436343,9.45808607 Z" fill="url(#linearGradient-3)"></path>
        <path d="M254.895989,154.94952 C253.630136,155.513771 229.567792,166.245681 186.963112,164.181709 C170.301122,163.342102 153.763162,160.855191 137.591131,156.757351 L63.9043766,242.371337 C81.8843435,247.375422 100.361493,250.380666 119.000538,251.332537 C161.601505,253.396509 185.66385,242.668311 186.933415,242.10406 L254.895989,154.94952 Z" fill="url(#linearGradient-4)"></path>
    </g>
</svg>

<svg preserveAspectRatio="xMidYMid" viewBox="0 0 256 252" xmlns="http://www.w3.org/2000/svg">
  <defs>
    <radialGradient id="stigg-icon_svg__a" cx="-100.114%" cy="-37.2%" r="279.115%" fx="-100.114%" fy="-37.2%" gradientTransform="matrix(1 0 0 .66782 0 -.124)">
      <stop offset="0%" stop-color="#FFBE6E"/>
      <stop offset="31.3%" stop-color="#FA9B68"/>
      <stop offset="100%" stop-color="#F0465A"/>
    </radialGradient>
    <radialGradient id="stigg-icon_svg__b" cx="98.183%" cy="107.6%" r="331.879%" fx="98.183%" fy="107.6%" gradientTransform="matrix(.64575 0 0 1 .348 0)">
      <stop offset="0%" stop-color="#FFBE6E"/>
      <stop offset="28.2%" stop-color="#FBAB69"/>
      <stop offset="84.8%" stop-color="#F27B5D"/>
      <stop offset="100%" stop-color="#F06E5A"/>
    </radialGradient>
    <linearGradient id="stigg-icon_svg__c" x1="-4.9%" x2="77.9%" y1="-41.5%" y2="102%">
      <stop offset="0%" stop-color="#003EE2"/>
      <stop offset="10.8%" stop-color="#1458E6"/>
      <stop offset="25.9%" stop-color="#2C77EC"/>
      <stop offset="41.8%" stop-color="#3F8EF0"/>
      <stop offset="58.7%" stop-color="#4C9FF3"/>
      <stop offset="77.1%" stop-color="#54A9F5"/>
      <stop offset="100%" stop-color="#57ADF6"/>
    </linearGradient>
    <linearGradient id="stigg-icon_svg__d" x1="125.2%" x2="-45.7%" y1="50%" y2="50%">
      <stop offset="0%" stop-color="#003EE2"/>
      <stop offset="26.8%" stop-color="#1E64E8"/>
      <stop offset="58.8%" stop-color="#3C8BF0"/>
      <stop offset="84.4%" stop-color="#4FA4F4"/>
      <stop offset="100%" stop-color="#57ADF6"/>
    </linearGradient>
  </defs>
  <path fill="url(#stigg-icon_svg__a)" d="M213.917 16.511c-16.75 18.257-28.499 31.68-35.248 40.27-6.483 8.253-14.583 20.093-24.299 35.522l14.626 70.297c5.728.71 27.789 5.597 34.044 5.898 42.6 2.063 50.59-12.992 51.86-13.556.241-1.37 4.952-27.366-7.169-68.215a241.763 241.763 0 0 0-33.814-70.216Z"/>
  <path fill="url(#stigg-icon_svg__b)" d="m154.355 92.303 59.547-75.792A241.763 241.763 0 0 0 137.68.274c-42.556-2.108-66.7 8.62-67.97 9.18-.248 1.366-7.712 28.14 4.375 69.044 1.725 5.763 6.385 10.605 8.51 16.233l71.76-2.428Z"/>
  <path fill="url(#stigg-icon_svg__c)" d="M69.744 9.458 1.12 96.118c-.252 1.364-4.98 27.282 7.105 68.187a253.954 253.954 0 0 0 21.746 51.406l65.765-91.876a252.833 252.833 0 0 1-18.887-46.19c-12.087-40.905-7.358-66.82-7.105-68.186Z"/>
  <path fill="url(#stigg-icon_svg__d)" d="M254.896 154.95c-1.266.564-25.328 11.296-67.933 9.232a252.8 252.8 0 0 1-49.372-7.425l-73.687 85.614a253.757 253.757 0 0 0 55.097 8.962c42.6 2.064 66.663-8.665 67.932-9.229l67.963-87.154Z"/>
</svg>
